actions/48/document-page-setup.svg

<?xml version="1.0" encoding="UTF-8" standalone="no"?>
<!-- Created with Inkscape (http://www.inkscape.org/) -->

<svg
   xmlns:svg="http://www.w3.org/2000/svg"
   xmlns="http://www.w3.org/2000/svg"
   xmlns:xlink="http://www.w3.org/1999/xlink"
   version="1.1"
   width="48"
   height="48"
   id="svg2747">
  <defs
     id="defs2749">
    <radialGradient
       cx="605.71429"
       cy="486.64789"
       r="117.14286"
       fx="605.71429"
       fy="486.64789"
       id="radialGradient4004"
       xlink:href="#linearGradient5060"
       gradientUnits="userSpaceOnUse"
       gradientTransform="matrix(0.02409717,0,0,0.01537476,26.477584,38.629039)" />
    <linearGradient
       id="linearGradient5060">
      <stop
         id="stop5062"
         style="stop-color:black;stop-opacity:1"
         offset="0" />
      <stop
         id="stop5064"
         style="stop-color:black;stop-opacity:0"
         offset="1" />
    </linearGradient>
    <radialGradient
       cx="605.71429"
       cy="486.64789"
       r="117.14286"
       fx="605.71429"
       fy="486.64789"
       id="radialGradient4002"
       xlink:href="#linearGradient5060"
       gradientUnits="userSpaceOnUse"
       gradientTransform="matrix(-0.02409717,0,0,0.01537476,21.522412,38.629039)" />
    <linearGradient
       id="linearGradient5048">
      <stop
         id="stop5050"
         style="stop-color:black;stop-opacity:0"
         offset="0" />
      <stop
         id="stop5056"
         style="stop-color:black;stop-opacity:1"
         offset="0.5" />
      <stop
         id="stop5052"
         style="stop-color:black;stop-opacity:0"
         offset="1" />
    </linearGradient>
    <linearGradient
       x1="302.85715"
       y1="366.64789"
       x2="302.85715"
       y2="609.50507"
       id="linearGradient4000"
       xlink:href="#linearGradient5048"
       gradientUnits="userSpaceOnUse"
       gradientTransform="matrix(0.0704142,0,0,0.01537476,-1.4497047,38.629007)" />
    <linearGradient
       id="linearGradient8589">
      <stop
         id="stop8591"
         style="stop-color:#fefefe;stop-opacity:1"
         offset="0" />
      <stop
         id="stop8593"
         style="stop-color:#cbcbcb;stop-opacity:1"
         offset="1" />
    </linearGradient>
    <linearGradient
       x1="32.892288"
       y1="8.0590115"
       x2="36.358372"
       y2="5.4565363"
       id="linearGradient2814"
       xlink:href="#linearGradient8589"
       gradientUnits="userSpaceOnUse"
       gradientTransform="matrix(0.9976985,0,0,1.0642049,-2.8361991,-0.1392616)" />
    <linearGradient
       id="linearGradient3931">
      <stop
         id="stop3933"
         style="stop-color:#8d8f8a;stop-opacity:1"
         offset="0" />
      <stop
         id="stop3935"
         style="stop-color:#cbcbcb;stop-opacity:1"
         offset="1" />
    </linearGradient>
    <linearGradient
       x1="-51.786404"
       y1="50.786446"
       x2="-51.786404"
       y2="2.9062471"
       id="linearGradient2812"
       xlink:href="#linearGradient3931"
       gradientUnits="userSpaceOnUse"
       gradientTransform="matrix(0.8074968,0,0,0.9358511,56.410231,-1.1144816)" />
    <linearGradient
       id="linearGradient3600">
      <stop
         id="stop3602"
         style="stop-color:#f4f4f4;stop-opacity:1"
         offset="0" />
      <stop
         id="stop3604"
         style="stop-color:#dbdbdb;stop-opacity:1"
         offset="1" />
    </linearGradient>
    <linearGradient
       x1="25.132275"
       y1="6.7287393"
       x2="25.132275"
       y2="47.013336"
       id="linearGradient2810"
       xlink:href="#linearGradient3600"
       gradientUnits="userSpaceOnUse"
       gradientTransform="translate(-2.9999991,-1.6e-6)" />
    <linearGradient
       id="linearGradient7025">
      <stop
         id="stop7027"
         style="stop-color:#e6ce46;stop-opacity:1"
         offset="0" />
      <stop
         id="stop7029"
         style="stop-color:#d6ba1c;stop-opacity:1"
         offset="1" />
    </linearGradient>
    <linearGradient
       x1="13.630114"
       y1="28.5"
       x2="25.208096"
       y2="41.180992"
       id="linearGradient10840"
       xlink:href="#linearGradient7025"
       gradientUnits="userSpaceOnUse"
       gradientTransform="translate(53,1.428571)" />
  </defs>
  <g
     id="layer1">
    <g
       transform="matrix(0.9561265,0,0,0.9561265,1.052964,2.1059284)"
       id="g2877"
       style="display:inline">
      <rect
         width="34"
         height="3.7338707"
         x="7"
         y="44.266129"
         id="rect2879"
         style="opacity:0.40206185;fill:url(#linearGradient4000);fill-opacity:1;fill-rule:nonzero;stroke:none;stroke-width:1;marker:none;visibility:visible;display:inline;overflow:visible" />
      <path
         d="m 7,44.266291 c 0,0 0,3.733665 0,3.733665 -1.2409448,0.007 -3,-0.836525 -3,-1.867073 0,-1.030547 1.3848007,-1.866591 3,-1.866592 z"
         id="path2881"
         style="opacity:0.40206185;fill:url(#radialGradient4002);fill-opacity:1;fill-rule:nonzero;stroke:none;stroke-width:1;marker:none;visibility:visible;display:inline;overflow:visible" />
      <path
         d="m 41,44.266291 c 0,0 0,3.733665 0,3.733665 1.240944,0.007 3,-0.836525 3,-1.867073 0,-1.030547 -1.384801,-1.866591 -3,-1.866592 z"
         id="path2883"
         style="opacity:0.40206185;fill:url(#radialGradient4004);fill-opacity:1;fill-rule:nonzero;stroke:none;stroke-width:1;marker:none;visibility:visible;display:inline;overflow:visible" />
    </g>
    <g
       transform="translate(2.999999,0)"
       id="g2805"
       style="display:inline">
      <path
         d="m 3.4999609,1.4999584 c 8.0202901,0 16.0405901,0 24.0608801,0 1.40694,0.48538 8.96546,6.01514 10.9392,9.8439596 0,11.7187 0,23.43741 0,35.15612 -11.66669,0 -23.33339,0 -35.0000801,0 0,-15.00003 0,-30.00005 0,-45.0000796 z"
         id="rect2594"
         style="fill:url(#linearGradient2810);fill-opacity:1;stroke:url(#linearGradient2812);stroke-width:0.9999218;stroke-linecap:butt;stroke-linejoin:round;stroke-miterlimit:4;stroke-opacity:1;stroke-dasharray:none;stroke-dashoffset:0" />
      <path
         d="m 26.767541,1.8146184 c 0.6375,4.12506 0.60946,9.0344696 0.60946,9.0344696 0,0 4.86973,-0.1115 10.88525,0.59393 -4.89688,-4.7877996 -8.32845,-6.7841796 -11.49471,-9.6283996 z"
         id="path8596"
         style="fill:black;fill-opacity:0.32663317;fill-rule:evenodd;stroke:black;stroke-width:0.5;stroke-linecap:butt;stroke-linejoin:round;stroke-miterlimit:4;stroke-opacity:0.16582917;stroke-dasharray:none;display:inline" />
      <path
         d="m 26.657921,1.5079284 c 1.41222,4.1225 1.29509,8.2607 1.29509,8.2607 0,0 7.833,0.5473096 10.17514,1.5939296 0,-1.7111396 -9.2975,-9.8254196 -11.47023,-9.8546296 z"
         id="path12038"
         style="fill:url(#linearGradient2814);fill-opacity:1;fill-rule:evenodd;stroke:none;display:inline" />
    </g>
    <path
       d="m 8.5,12.5 0,30 c 10.66583,-0.07888 21.334957,0.122845 32,-0.03125 0,0 0,-2.838472 0,-5.46875 L 8.5,12.5 z m 6,13 15,11 -15,0 0,-11 z"
       id="path15577"
       style="opacity:0.1;fill:black;fill-opacity:1;fill-rule:evenodd;stroke:black;stroke-width:1.00000024px;stroke-linecap:butt;stroke-linejoin:miter;stroke-opacity:1;display:inline" />
    <g
       transform="translate(-50,-3.4285709)"
       id="g10824"
       style="display:inline">
      <path
         d="m 57.5,14.928571 0,30 39,0 -39,-30 z m 6,13 15,11 -15,0 0,-11 z"
         id="path4319"
         style="fill:url(#linearGradient10840);fill-opacity:1;fill-rule:evenodd;stroke:#a38503;stroke-width:1.00000024px;stroke-linecap:butt;stroke-linejoin:miter;stroke-opacity:1" />
      <path
         d="m 61.5,44.928571 0,-3"
         id="path4326"
         style="fill:none;stroke:#a38503;stroke-width:1px;stroke-linecap:round;stroke-linejoin:miter;stroke-opacity:1" />
      <path
         d="m 67.5,44.928571 0,-3"
         id="path4328"
         style="fill:none;stroke:#a38503;stroke-width:1px;stroke-linecap:round;stroke-linejoin:miter;stroke-opacity:1" />
      <path
         d="m 73.5,44.928571 0,-2.964286"
         id="path4330"
         style="fill:none;stroke:#a38503;stroke-width:1px;stroke-linecap:round;stroke-linejoin:miter;stroke-opacity:1" />
      <path
         d="m 79.5,44.928571 0,-3"
         id="path4332"
         style="fill:none;stroke:#a38503;stroke-width:1px;stroke-linecap:round;stroke-linejoin:miter;stroke-opacity:1" />
      <path
         d="m 85.5,44.928571 0,-3"
         id="path4334"
         style="fill:none;stroke:#a38503;stroke-width:1px;stroke-linecap:round;stroke-linejoin:miter;stroke-opacity:1" />
    </g>
    <path
       d="m 8.4375,13.40625 0,27.15625 35.3125,0 L 8.4375,13.40625 z M 13.34375,23.5625 A 0.93759375,0.93759375 0 0 1 14.0625,23.75 l 15,11 A 0.93759375,0.93759375 0 0 1 28.5,36.4375 l -15,0 A 0.93759375,0.93759375 0 0 1 12.5625,35.5 l 0,-11 a 0.93759375,0.93759375 0 0 1 0.78125,-0.9375 z"
       transform="translate(0,-0.0223209)"
       id="path14994"
       style="opacity:0.41700404;fill:none;stroke:white;stroke-width:1.00000024px;stroke-linecap:butt;stroke-linejoin:miter;stroke-opacity:1;display:inline" />
  </g>
</svg>

<?xml version="1.0" encoding="UTF-8" standalone="no"?>
<!-- Created with Inkscape (http://www.inkscape.org/) -->
<svg
   xmlns:dc="http://purl.org/dc/elements/1.1/"
   xmlns:cc="http://creativecommons.org/ns#"
   xmlns:rdf="http://www.w3.org/1999/02/22-rdf-syntax-ns#"
   xmlns:svg="http://www.w3.org/2000/svg"
   xmlns="http://www.w3.org/2000/svg"
   xmlns:xlink="http://www.w3.org/1999/xlink"
   xmlns:sodipodi="http://sodipodi.sourceforge.net/DTD/sodipodi-0.dtd"
   xmlns:inkscape="http://www.inkscape.org/namespaces/inkscape"
   width="48px"
   height="48px"
   id="svg2747"
   sodipodi:version="0.32"
   inkscape:version="0.46"
   sodipodi:docname="document-page-setup.svg"
   inkscape:output_extension="org.inkscape.output.svg.inkscape">
  <defs
     id="defs2749">
    <radialGradient
       inkscape:collect="always"
       xlink:href="#linearGradient5060"
       id="radialGradient4004"
       gradientUnits="userSpaceOnUse"
       gradientTransform="matrix(2.4097175e-2,0,0,1.5374761e-2,26.477584,38.629039)"
       cx="605.71429"
       cy="486.64789"
       fx="605.71429"
       fy="486.64789"
       r="117.14286" />
    <linearGradient
       inkscape:collect="always"
       id="linearGradient5060">
      <stop
         style="stop-color:black;stop-opacity:1;"
         offset="0"
         id="stop5062" />
      <stop
         style="stop-color:black;stop-opacity:0;"
         offset="1"
         id="stop5064" />
    </linearGradient>
    <radialGradient
       inkscape:collect="always"
       xlink:href="#linearGradient5060"
       id="radialGradient4002"
       gradientUnits="userSpaceOnUse"
       gradientTransform="matrix(-2.409717e-2,0,0,1.5374761e-2,21.522412,38.629039)"
       cx="605.71429"
       cy="486.64789"
       fx="605.71429"
       fy="486.64789"
       r="117.14286" />
    <linearGradient
       id="linearGradient5048">
      <stop
         style="stop-color:black;stop-opacity:0;"
         offset="0"
         id="stop5050" />
      <stop
         id="stop5056"
         offset="0.5"
         style="stop-color:black;stop-opacity:1;" />
      <stop
         style="stop-color:black;stop-opacity:0;"
         offset="1"
         id="stop5052" />
    </linearGradient>
    <linearGradient
       inkscape:collect="always"
       xlink:href="#linearGradient5048"
       id="linearGradient4000"
       gradientUnits="userSpaceOnUse"
       gradientTransform="matrix(7.0414201e-2,0,0,1.5374761e-2,-1.4497047,38.629007)"
       x1="302.85715"
       y1="366.64789"
       x2="302.85715"
       y2="609.50507" />
    <linearGradient
       id="linearGradient8589">
      <stop
         style="stop-color:#fefefe;stop-opacity:1"
         offset="0"
         id="stop8591" />
      <stop
         style="stop-color:#cbcbcb;stop-opacity:1;"
         offset="1"
         id="stop8593" />
    </linearGradient>
    <linearGradient
       inkscape:collect="always"
       xlink:href="#linearGradient8589"
       id="linearGradient2814"
       gradientUnits="userSpaceOnUse"
       gradientTransform="matrix(0.9976985,0,0,1.0642049,-2.8361991,-0.1392616)"
       x1="32.892288"
       y1="8.0590115"
       x2="36.358372"
       y2="5.4565363" />
    <linearGradient
       id="linearGradient3931">
      <stop
         id="stop3933"
         offset="0"
         style="stop-color:#8d8f8a;stop-opacity:1" />
      <stop
         id="stop3935"
         offset="1"
         style="stop-color:#cbcbcb;stop-opacity:1;" />
    </linearGradient>
    <linearGradient
       inkscape:collect="always"
       xlink:href="#linearGradient3931"
       id="linearGradient2812"
       gradientUnits="userSpaceOnUse"
       gradientTransform="matrix(0.8074968,0,0,0.9358511,56.410231,-1.1144816)"
       x1="-51.786404"
       y1="50.786446"
       x2="-51.786404"
       y2="2.9062471" />
    <linearGradient
       id="linearGradient3600"
       inkscape:collect="always">
      <stop
         id="stop3602"
         offset="0"
         style="stop-color:#f4f4f4;stop-opacity:1" />
      <stop
         id="stop3604"
         offset="1"
         style="stop-color:#dbdbdb;stop-opacity:1" />
    </linearGradient>
    <linearGradient
       inkscape:collect="always"
       xlink:href="#linearGradient3600"
       id="linearGradient2810"
       gradientUnits="userSpaceOnUse"
       gradientTransform="translate(-2.9999991,-1.6e-6)"
       x1="25.132275"
       y1="6.7287393"
       x2="25.132275"
       y2="47.013336" />
    <linearGradient
       inkscape:collect="always"
       id="linearGradient7025">
      <stop
         style="stop-color:#e6ce46;stop-opacity:1"
         offset="0"
         id="stop7027" />
      <stop
         style="stop-color:#d6ba1c;stop-opacity:1"
         offset="1"
         id="stop7029" />
    </linearGradient>
    <linearGradient
       inkscape:collect="always"
       xlink:href="#linearGradient7025"
       id="linearGradient10840"
       gradientUnits="userSpaceOnUse"
       gradientTransform="translate(53,1.428571)"
       x1="13.630114"
       y1="28.5"
       x2="25.208096"
       y2="41.180992" />
  </defs>
  <sodipodi:namedview
     id="base"
     pagecolor="#ffffff"
     bordercolor="#666666"
     borderopacity="1.0"
     inkscape:pageopacity="0.0"
     inkscape:pageshadow="2"
     inkscape:zoom="7"
     inkscape:cx="24"
     inkscape:cy="24"
     inkscape:current-layer="layer1"
     showgrid="true"
     inkscape:grid-bbox="true"
     inkscape:document-units="px"
     inkscape:window-width="640"
     inkscape:window-height="720"
     inkscape:window-x="0"
     inkscape:window-y="24" />
  <metadata
     id="metadata2752">
    <rdf:RDF>
      <cc:Work
         rdf:about="">
        <dc:format>image/svg+xml</dc:format>
        <dc:type
           rdf:resource="http://purl.org/dc/dcmitype/StillImage" />
      </cc:Work>
    </rdf:RDF>
  </metadata>
  <g
     id="layer1"
     inkscape:label="Layer 1"
     inkscape:groupmode="layer">
    <g
       style="display:inline"
       id="g2877"
       transform="matrix(0.9561265,0,0,0.9561265,1.052964,2.1059284)">
      <rect
         style="opacity:0.40206185;fill:url(#linearGradient4000);fill-opacity:1;fill-rule:nonzero;stroke:none;stroke-width:1;stroke-linecap:round;stroke-linejoin:miter;marker:none;marker-start:none;marker-mid:none;marker-end:none;stroke-miterlimit:4;stroke-dasharray:none;stroke-dashoffset:0;stroke-opacity:1;visibility:visible;display:inline;overflow:visible"
         id="rect2879"
         width="34"
         height="3.7338707"
         x="7"
         y="44.266129" />
      <path
         sodipodi:nodetypes="cccc"
         id="path2881"
         d="M 7,44.266291 C 7,44.266291 7,47.999956 7,47.999956 C 5.7590552,48.006985 4,47.163431 4,46.132883 C 4,45.102336 5.3848007,44.266292 7,44.266291 z"
         style="opacity:0.40206185;fill:url(#radialGradient4002);fill-opacity:1;fill-rule:nonzero;stroke:none;stroke-width:1;stroke-linecap:round;stroke-linejoin:miter;marker:none;marker-start:none;marker-mid:none;marker-end:none;stroke-miterlimit:4;stroke-dasharray:none;stroke-dashoffset:0;stroke-opacity:1;visibility:visible;display:inline;overflow:visible" />
      <path
         sodipodi:nodetypes="cccc"
         id="path2883"
         d="M 41,44.266291 C 41,44.266291 41,47.999956 41,47.999956 C 42.240944,48.006985 44,47.163431 44,46.132883 C 44,45.102336 42.615199,44.266292 41,44.266291 z"
         style="opacity:0.40206185;fill:url(#radialGradient4004);fill-opacity:1;fill-rule:nonzero;stroke:none;stroke-width:1;stroke-linecap:round;stroke-linejoin:miter;marker:none;marker-start:none;marker-mid:none;marker-end:none;stroke-miterlimit:4;stroke-dasharray:none;stroke-dashoffset:0;stroke-opacity:1;visibility:visible;display:inline;overflow:visible" />
    </g>
    <g
       style="display:inline"
       id="g2805"
       transform="translate(2.999999,0)">
      <path
         sodipodi:nodetypes="cccccc"
         id="rect2594"
         d="M 3.4999609,1.4999584 C 11.520251,1.4999584 19.540551,1.4999584 27.560841,1.4999584 C 28.967781,1.9853384 36.526301,7.5150984 38.500041,11.343918 C 38.500041,23.062618 38.500041,34.781328 38.500041,46.500038 C 26.833351,46.500038 15.166651,46.500038 3.4999609,46.500038 C 3.4999609,31.500008 3.4999609,16.499988 3.4999609,1.4999584 z"
         style="fill:url(#linearGradient2810);fill-opacity:1;stroke:url(#linearGradient2812);stroke-width:0.9999218;stroke-linecap:butt;stroke-linejoin:round;stroke-miterlimit:4;stroke-dasharray:none;stroke-dashoffset:0;stroke-opacity:1" />
      <path
         sodipodi:nodetypes="cccc"
         id="path8596"
         d="M 26.767541,1.8146184 C 27.405041,5.9396784 27.377001,10.849088 27.377001,10.849088 C 27.377001,10.849088 32.246731,10.737588 38.262251,11.443018 C 33.365371,6.6552184 29.933801,4.6588384 26.767541,1.8146184 z"
         style="fill:#000000;fill-opacity:0.32663317;fill-rule:evenodd;stroke:#000000;stroke-width:0.5;stroke-linecap:butt;stroke-linejoin:round;stroke-miterlimit:4;stroke-dasharray:none;stroke-opacity:0.16582917;display:inline" />
      <path
         sodipodi:nodetypes="cccc"
         id="path12038"
         d="M 26.657921,1.5079284 C 28.070141,5.6304284 27.953011,9.7686284 27.953011,9.7686284 C 27.953011,9.7686284 35.786011,10.315938 38.128151,11.362558 C 38.128151,9.6514184 28.830651,1.5371384 26.657921,1.5079284 z"
         style="fill:url(#linearGradient2814);fill-opacity:1;fill-rule:evenodd;stroke:none;stroke-width:1px;stroke-linecap:butt;stroke-linejoin:miter;stroke-opacity:1;display:inline" />
    </g>
    <path
       style="display:inline;fill:#000000;fill-opacity:1;fill-rule:evenodd;stroke:#000000;stroke-width:1.00000024000000010px;stroke-linecap:butt;stroke-linejoin:miter;stroke-opacity:1;opacity:0.10000000000000001"
       d="M 8.5,12.5 L 8.5,42.5 C 19.16583,42.421119 29.834957,42.622845 40.5,42.46875 C 40.5,42.46875 40.5,39.630278 40.5,37 L 8.5,12.5 z M 14.5,25.5 L 29.5,36.5 L 14.5,36.5 L 14.5,25.5 z"
       id="path15577"
       sodipodi:nodetypes="ccccccccc" />
    <g
       style="display:inline"
       id="g10824"
       transform="translate(-50,-3.4285709)">
      <path
         id="path4319"
         d="M 57.5,14.928571 L 57.5,44.928571 L 96.5,44.928571 L 57.5,14.928571 z M 63.5,27.928571 L 78.5,38.928571 L 63.5,38.928571 L 63.5,27.928571 z "
         style="fill:url(#linearGradient10840);fill-opacity:1;fill-rule:evenodd;stroke:#a38503;stroke-width:1.00000024px;stroke-linecap:butt;stroke-linejoin:miter;stroke-opacity:1" />
      <path
         sodipodi:nodetypes="cc"
         id="path4326"
         d="M 61.5,44.928571 L 61.5,41.928571"
         style="fill:none;fill-opacity:0.75;fill-rule:evenodd;stroke:#a38503;stroke-width:1px;stroke-linecap:round;stroke-linejoin:miter;stroke-opacity:1" />
      <path
         sodipodi:nodetypes="cc"
         id="path4328"
         d="M 67.5,44.928571 L 67.5,41.928571"
         style="fill:none;fill-opacity:0.75;fill-rule:evenodd;stroke:#a38503;stroke-width:1px;stroke-linecap:round;stroke-linejoin:miter;stroke-opacity:1" />
      <path
         sodipodi:nodetypes="cc"
         id="path4330"
         d="M 73.5,44.928571 L 73.5,41.964285"
         style="fill:none;fill-opacity:0.75;fill-rule:evenodd;stroke:#a38503;stroke-width:1px;stroke-linecap:round;stroke-linejoin:miter;stroke-opacity:1" />
      <path
         sodipodi:nodetypes="cc"
         id="path4332"
         d="M 79.5,44.928571 L 79.5,41.928571"
         style="fill:none;fill-opacity:0.75;fill-rule:evenodd;stroke:#a38503;stroke-width:1px;stroke-linecap:round;stroke-linejoin:miter;stroke-opacity:1" />
      <path
         sodipodi:nodetypes="cc"
         id="path4334"
         d="M 85.5,44.928571 L 85.5,41.928571"
         style="fill:none;fill-opacity:0.75;fill-rule:evenodd;stroke:#a38503;stroke-width:1px;stroke-linecap:round;stroke-linejoin:miter;stroke-opacity:1" />
    </g>
    <path
       sodipodi:type="inkscape:offset"
       inkscape:radius="-0.9375"
       inkscape:original="M 7.5 11.5 L 7.5 41.5 L 46.5 41.5 L 7.5 11.5 z M 13.5 24.5 L 28.5 35.5 L 13.5 35.5 L 13.5 24.5 z "
       style="display:inline;fill:none;fill-opacity:1;fill-rule:evenodd;stroke:#ffffff;stroke-width:1.00000024000000010px;stroke-linecap:butt;stroke-linejoin:miter;stroke-opacity:1;opacity:0.41700405000000001"
       id="path14994"
       d="M 8.4375,13.40625 L 8.4375,40.5625 L 43.75,40.5625 L 8.4375,13.40625 z M 13.34375,23.5625 C 13.59893,23.523383 13.858947,23.591214 14.0625,23.75 L 29.0625,34.75 C 29.3852,34.992176 29.516785,35.413639 29.389198,35.796399 C 29.261611,36.17916 28.903465,36.437379 28.5,36.4375 L 13.5,36.4375 C 12.982254,36.437448 12.562552,36.017746 12.5625,35.5 L 12.5625,24.5 C 12.556079,24.037595 12.887768,23.639569 13.34375,23.5625 z"
       transform="translate(0,-2.23209e-2)" />
  </g>
</svg>
